X:1
T:(DG) In dulci jubilo
T: In dulci jubilo
T:Traditional Gesius/J.S. Bach 
T:DG2017RdB
T:DG2017RdB
T:DG2017RdB
T:DG2017RdB
Z:DG2017RdB
%%score 1 2 3 4
L:1/8
Q:1/2=80
M:3/4
K:G
V:1 treble nm="Sopraan" snm="Sop."
V:2 treble nm="Alt" snm="A."
V:3 bass nm="Bariton" snm="Ba."
V:4 bass nm="Bas" snm="Bs."
V:1
 G2 | G4 G2 | B4 c2 | (d4 e2 | d4) d2 | G4 G2 | B4 c2 | (d4 e2 | d6) | d4 e2 | d4 c2 | B6 | G4 G2 | %13
w: 1.~In|dul- ci|ju- bi-|lo _|_ nun|sing- et|und seid|froh! _|_|Un- sers|Her- zens|Won-|ne leit|
w: 2.~O|Je- su|par- vu-|le, _|_ nach|dir ist|mir so|weh; _|_|tröst mir|mein Ge-|mü-|te, o|
w: 3.~O|pa- tris|ca- ri-|tas, _|_ o|na- ti|le- ni-|tas; _|_|wir wärn|all ver-|dor-|ben per|
w: 4.~U-|bi sunt|gau- di-|a? _|_ _|Nir- gend|mehr denn|da, _|_|da die|Eng- el|sing-|en _|
 A4 A2 | B4 A2 | (G4 A2 | B4) B2 | d4 e2 | d4 c2 | B6 | G4 G2 | A4 A2 | B4 A2 | (G4 A2 | B6) | %25
w: in prae-|se- pi-|o _|_ und|leuch- tet|als die|Son-|ne in|ma- tris|gre- mi-|o _|_|
w: pu- er|op- ti-|me, _|_ durch|al- le|dei- ne|GÜ-|te, o|prin- ceps|glo- ri-|ae. _|_|
w: nos- tra|cri- mi-|na, _|_ so|hat er|uns er-|wor-|ben coe-|lo- rum|gau- di-|a. _|_|
w: no- va|can- ti-|ca _|_ _|und die|Schel- len|kling-|en in|re- gis|cu- ri-|a. _|_|
 E4 E2 | F4 F2 | (G6 | d6) | B4 B2 | A4 A2 | G6 |] %32
w: Al- pha|es et|O,|_|Al- pha|es et|O.|
w: Tra- he|me post-|te.|_|Tra- he|me post-|te.|
w: Ei- a|wärn wir|da!|_|Ei- a|wärn wir|da!|
w: Ei- a,|wärn wir|da!|_|Ei- a,|wärn wir|da!|
V:2
 D2 | D4 D2 | D4 G2 | (F4 E2 | F4) G2 | D4 D2 | G4 G2 | (F4 E2 | F6) | G4 G2 | F4 E2 | ^D6 | %12
w: 1.~In|dul- ci|ju- bi-|lo _|_ nun|sing- et|und seid|froh! _|_|Un- sers|Her- zens|Won-|
w: 2.~O|Je- su|par- vu-|le, _|_ nach|dir ist|mir so|weh; _|_|tröst mir|mein Ge-|mü-|
w: 3.~O|pa- tris|ca- ri-|tas, _|_ o|na- ti|le- ni-|tas; _|_|wir wärn|all ver-|dor-|
w: 4.~U-|bi sunt|gau- di-|a? _|_ _|Nir- gend|mehr denn|da, _|_|da die|Eng- el|sing-|
 E4 D2 | F4 F2 | G4 E2 | (E4 F2 | G4) G2 | G4 G2 | D4 A2 | F6 | E4 E2 | E4 F2 | G4 E2 | (E4 F2 | %24
w: ne leit|in prae-|se- pi-|o _|_ und|leuch- tet|als die|Son-|ne in|ma- tris|gre- mi-|o _|
w: te, o|pu- er|op- ti-|me, _|_ durch|al- le|dei- ne|GÜ-|te, o|prin- ceps|glo- ri-|ae. _|
w: ben per|nos- tra|cri- mi-|na, _|_ so|hat er|uns er-|wor-|ben coe-|lo- rum|gau- di-|a. _|
w: en _|no- va|can- ti-|ca _|_ _|und die|Schel- len|kling-|en in|re- gis|cu- ri-|a. _|
 G6) | G,4 C2 | A,4 A,2 | (E4 G2- | G4 F2) | G4 F2 | E4 F2 | G6 |] %32
w: _|Al- pha|es et|O, _|_ _|Al- pha|es et|O.|
w: _|Tra- he|me post-|te. _|_ _|Tra- he|me post-|te.|
w: _|Ei- a|wärn wir|da! _|_ _|Ei- a|wärn wir|da!|
w: _|Ei- a,|wärn wir|da! _|_ _|Ei- a,|wärn wir|da!|
V:3
 B,2 | B,4 B,2 | B,4 G,2 | (A,3 B, ^C2 | D4) B,2 | B,4 B,2 | D4 E2 | ((A,3 B, ^C2 | D6)) | B,4 C2 | %10
w: 1.~In|dul- ci|ju- bi-|lo _ _|_ nun|sing- et|und seid|froh! _ _|_|Un- sers|
w: 2.~O|Je- su|par- vu-|le _ _|_ nach|dir ist|mir so|weh; _ _|_|tröst mir|
w: 3.~O|pa- tris|ca- ri-|tas, _ _|_ o|na- ti|le- ni-|tas; _ _|_|wir wärn|
w: 4.~U-|bi sunt|gau- di-|a? _ _|_ _|Nir- gend|mehr denn|da, _ _|_|da die|
 A,4 A,2 | F,6 | E,4 B,2 | D4 D2 | D4 D2 | (B,4 C2 | D4) D2 | B,4 C2 | B,4 E2 | ^D6 | E4 B,2 | %21
w: Her- zens|Won-|ne leit|in prae-|se- pi-|o _|_ und|leuch- tet|als die|Son-|ne in|
w: mein Ge-|mü-|te, o|pu- er|op- ti-|me, _|_ durch|al- le|dei- ne|GÜ-|te, o|
w: all ver-|dor-|ben per|nos- tra|cri- mi-|na, _|_ so|hat er|uns er-|wor-|ben coe-|
w: Eng- el|sing-|en _|no- va|can- ti-|ca _|_ _|und die|Schel- len|kling-|en in|
 C4 D2 | D4 C2 | (B,4 C2 | D6) | C4 G,2 | D4 D2 | (B,3 A, G,2 | A,6) | E4 D2 | (C3 B,) A,2 | G,6 |] %32
w: ma- tris|gre- mi-|o _|_|Al- pha|es et|O, _ _|_|Al- pha|es _ et|O.|
w: prin- ceps|glo- ri-|ae. _|_|Tra- he|me post-|te. _ _|_|Tra- he|me _ post-|te.|
w: lo- rum|gau- di-|a. _|_|Ei- a|wärn wir|da! _ _|_|Ei- a,|wärn _ wir|da!|
w: re- gis|cu- ri-|a. _|_|Ei- a,|wärn wir|da! _ _|_|Ei- a,|wärn _ wir|da!|
V:4
 G,2 | G,4 G,2 | G,4 E,2 | D,6- | D,4 G,2 | G,4 G,2 | G,4 E,2 | D,6- | D,6 | G,4 C,2 | D,4 A,,2 | %11
w: 1.~In|dul- ci|ju- bi-|lo|_ nun|sing- et|und seid|froh!|_|Un- sers|Her- zens|
w: 2.~O|Je- su|par- vu-|le|_ nach|dir ist|mir so|weh;|_|tröst mir|mein Ge-|
w: 3.~O|pa- tris|ca- ri-|tas,|_ o|na- ti|le- ni-|tas;|_|wir wärn|all ver-|
w: 4.~U-|bi sunt|gau- di-|a?|_ _|Nir- gend|mehr denn|da,|_|da die|Eng- el|
 B,,6 | E,4 E,2 | D,4 D,2 | G,4 D,2 | (E,4 A,2 | G,4) G,2 | G,4 C,2 | G,4 A,2 | B,6 | E,4 E,2 | %21
w: Won-|ne leit|in prae-|se- pi-|o _|_ und|leuch- tet|als die|Son-|ne in|
w: mü-|te, o|pu- er|op- ti-|me, _|_ durch|al- le|dei- ne|GÜ-|te, o|
w: dor-|ben per|nos- tra|cri- mi-|na, _|_ so|hat er|uns er-|wor-|ben coe-|
w: sing-|en _|no- va|can- ti-|ca _|_ _|und die|Schel- len|kling-|en in|
 A,4 D,2 | G,4 A,2 | (E,4 A,2 | G,6) | C,4 C,2 | D,4 D,2 | (E,6 | D,6) | E,4 B,,2 | C,4 D,2 | %31
w: ma- tris|gre- mi-|o _|_|Al- pha|es et|O,|_|Al- pha|es et|
w: prin- ceps|glo- ri-|ae. _|_|Tra- he|me post-|te.|_|Tra- he|me post-|
w: lo- rum|gau- di-|a. _|_|Ei- a|wärn wir|da!|_|Ei- a|wärn wir|
w: re- gis|cu- ri-|a. _|_|Ei- a,|wärn wir|da!|_|Ei- a,|wärn wir|
 G,,6 |] %32
w: O.|
w: te.|
w: da!|
w: da!|

